!!!SOCIAL_FUNCTION:	bird dance songs
!!!PDT:	1956
!!!OTL: No_114_Hinata_Dance_Song_(j).krn
!!!LANG: Non-Tone
!!!LING_GROUP: Muskogean
!!!REG: Florida
**kern
*staff1
=1-
*clefF4
*k[b-e-]
*M3/4
16F\LL
16F\J
8c\J
2c\
=2!|:
*M5/8
16d\LL
16B-\
16B-\
16F\
16F\JJ
16r
16c\LL
16c\
(16c\
16G\JJ)
=3||
*M2/4
4.G\
8F\
=4||
*M3/8
16D\LK
8.D\
16D\Jk
16r
=5||
*M3/4
8.F\L
16D\Jk
(8F\L
8D\J)
4F\
=6||
*M2/4
8F/L
24C/K
12C/J
4BB-/
=7
*M3/4
16C/LL
16C/J
8c/J
2c\
==:|!
*-
